!!!OTL:  69. Der Matros und sein Lieb.
!!!ODT: 1891
!!!ARE: Europa, Mitteleuropa, Deutschland, Schleswig - Holstein, Achtrup
!!!SCT: E0069
!!!TXL: @@DE
!!!YEM: Copyright 1995, estate of Helmut Schaffrath.
**kern	**text
*ICvox	*
*M6/8	*
*k[b-]	*
*F:	*
!LO:TX:a:t=Sanft bewegt.	!
!LO:TX:a:t=Mel. aus Achtrup in Schleswig-Holſtein. 1891.	!
{8c	Es
=1	=1
8c	gieng
8f	ein
8a	Ma-
8cc	-tro-
8a	-ſe
8f	wohl
=2	=2
8.e	ü-
16e	-ber
8g	den
8b-L	Grund,
8gJ}	.
{8e	und
=3	=3
8.f	ſchau-
16f	-te
8a	ins
8cc/L	tie-
8aJ	-fe,
8f	tiefe
=4	=4
4.g	Thal.
4r}	.
{16fL	Was
16b-J	.
=5	=5
8ddL	ſah
8b-J	.
8dd	er
8ffL	in
8eeJ	.
8dd	der
=6	=6
8ccL	Fer-
8fJ	.
8a	-ne
4cc}	ſtehn?
{8dd	ein_ſo
=7	=7
4cc	wunder-
8g	.
8b-L	-ſchö-
8aJ	.
8g	-ne
=8	=8
(<4a	Dam,
8dd	.
4cc)}	.
{8cc	was
=9	=9
8ddL	Dam.
8b-J	ſah
8dd	.
8ffL	er
8eeJ	in
8dd	.
=10	=10
8ccL	der
8fJ	Fer-
8a	.
4cc}	-ne
{8dd	ſtehn?
=11	=11
4cc	ein_ſo
8g	wunder-
8b-L	.
8aJ	-ſchö-
8g	.
=12	=12
4.f	-ne
4r}	Dam.
==	==
!!!AGN: erzaehlendes Volks - Lied, Sage, Liebe, Ballade ?
!!!ONB: ESAC (Essen Associative Code) Database: ERK1
!!!AMT: compound duple
!!!AIN: vox
!!!EED: Helmut Schaffrath
!!!EEV: 1.0
!!!RDF**kern: < = below
!!!GTL: Liebesgeschichten mit gluecklichem Ausgange
!!!URL-scan: https://rosdok.uni-rostock.de/mcrviewer/recordIdentifier/rosdok_ppn745146120/iview2/phys_0310.iview2?x=-495.6391625615772&y=1158.3608189010993&scale=0.46294184720638515&rotation=0&layout=singlePageLayout&logicalDiv=log_0009
!!!ENC: Anna Maria Matuszewska
!!!EEV: 2024/11/26
*-	*-
